!!!OTL: Winter.
!!!ARE: Europa, Mitteleuropa, Deutschland
!!!SCT: A0154
!!!TXL: @@DE
!!!YEM: Copyright 1995, estate of Helmut Schaffrath.
**kern	**text
*ICvox	*
*Ivox	*
*M3/2	*
*met(3)	*
*clefC4	*
*k[]	*
*a:aeo	*
=1	=1
!LO:TX:a:t=äol.	!
!LO:N:vis=1	!
{2A	Der
!LO:N:vis=1	!
2A	ſau-
!LO:N:vis=1	!
2A	-re
=2	=2
*lig	*
!LO:N:vis=1.	!
2.c	win-
!LO:N:vis=2	!
4d	.
*Xlig	*
!LO:N:vis=1	!
2e	-ter
=3	=3
*lig	*
!LO:N:vis=1	!
2A	iſt
!LO:N:vis=1	!
2c	.
*Xlig	*
!LO:N:vis=1	!
2d	ſo
=4	=4
!LO:N:vis=0.	!
1.e}	kalt,
=5	=5
!LO:N:vis=1	!
{2A	Daß
!LO:N:vis=1	!
2A	er
!LO:N:vis=1	!
2A	ver-
=6	=6
*lig	*
!LO:N:vis=1.	!
2.c	-ſäu-
!LO:N:vis=2	!
4d	-ret
*Xlig	*
!LO:N:vis=1	!
2e	den
=7	=7
*lig	*
!LO:N:vis=1	!
2A	grü-
!LO:N:vis=1	!
2c	.
*Xlig	*
!LO:N:vis=1	!
2d	-nen
=8	=8
!LO:N:vis=0.	!
1.e}	wald,
=9	=9
!LO:N:vis=1	!
{2c	ver-
!LO:N:vis=1	!
2c	-ſäu-
!LO:N:vis=1	!
2c	-ret
=10	=10
!LO:N:vis=0	!
1c	ach
!LO:N:vis=1	!
2e	die
=11	=11
!LO:N:vis=0	!
1f	blüm-
!LO:N:vis=1	!
2e	-lein
=12	=12
!LO:N:vis=0	!
1d	auf
!LO:TX:a:t=P:coloured notes 2cc, 1.b:problem	!
!LO:N:vis=1	!
2c	der
=13-	=13-
!LO:N:vis=0	!
1.B	hei-
=14	=14
!LO:N:vis=0.	!
1.A}	-de.
==	==
!!!GTL: Liebeslieder
!!!AGN: Romanze, Ballade, Lied
!! Aus Pater Werlins Liederhandschrift c. 1640 S. 1326.
!!!ONB: ESAC (Essen Associative Code) Database: ALTDEU
!!!AMT: simple triple
!!!AIN: vox
!!!EED: Helmut Schaffrath
!!!EEV: 1.0
!!!AMD: Aeolian
!!!URL-scan: https://rosdok.uni-rostock.de/mcrviewer/recordIdentifier/rosdok_ppn738218359/iview2/phys_0322.iview2?x=-2231.2783251231526&y=-1815.346798054641&scale=0.2314709236031927&rotation=0&layout=singlePageLayout&logicalDiv=log_0009
!!!ENC: Anna Maria Matuszewska
!!!EEV: 2024/26/02
*-	*-
